mimetypes/scalable/application-x-amiga-disk-format.svg

<?xml version="1.0" standalone="no"?><!-- Generator: Gravit.io --><svg xmlns="http://www.w3.org/2000/svg" xmlns:xlink="http://www.w3.org/1999/xlink" style="isolation:isolate" viewBox="0 0 256 256" width="256" height="256"><switch><g><g id="application-mimetype"><g opacity="0.2"><path d=" M 78.924321 15.500025 C 43.627596 15.500025 39.829708 19.125398 40.002695 54.49353 L 40.002695 127.500014 L 40.002695 200.506441 C 39.829708 235.874573 43.627596 239.500004 78.924321 239.500004 L 177.081083 239.500004 C 212.377805 239.500004 216.002702 235.875035 216.002702 200.506441 L 216.002702 127.500014 L 216.002702 54.49353 C 216.002702 19.124994 212.377805 15.500025 177.081083 15.500025 L 78.924321 15.500025 Z " id="path1163" fill="none" vector-effect="non-scaling-stroke" stroke-width="4" stroke="rgb(0,0,0)" stroke-linejoin="miter" stroke-linecap="butt" stroke-miterlimit="4"/></g><defs><filter id="WIkjIQtonvmOYde4puyjDmU4nrpwhQu4" x="-200%" y="-200%" width="400%" height="400%" filterUnits="objectBoundingBox" color-interpolation-filters="sRGB"><feGaussianBlur xmlns="http://www.w3.org/2000/svg" stdDeviation="2.120027"/></filter></defs><g opacity="0.1" filter="url(#WIkjIQtonvmOYde4puyjDmU4nrpwhQu4)"><path d=" M 78.924315 16.5 C 43.627592 16.5 39.82971 20.125416 40.002699 55.493531 L 40.002699 128.5 L 40.002699 201.50647 C 39.82971 236.874573 43.627592 240.500001 78.924315 240.500001 L 177.081083 240.500001 C 212.377806 240.500001 215.084425 236.863068 216.002699 201.50647 L 216.002699 128.5 L 216.002699 55.493531 C 216.002699 20.124997 212.377806 16.5 177.081083 16.5 L 78.924315 16.5 Z " id="shadow" fill="rgb(0,0,0)"/></g><defs><filter id="wq4FyZM8ozSXzVNKv3Axe3EchqYGJHPp" x="-200%" y="-200%" width="400%" height="400%" filterUnits="objectBoundingBox" color-interpolation-filters="sRGB"><feGaussianBlur xmlns="http://www.w3.org/2000/svg" stdDeviation="8.4801079"/></filter></defs><g opacity="0.3" filter="url(#wq4FyZM8ozSXzVNKv3Axe3EchqYGJHPp)"><linearGradient id="_lgradient_225" x1="-0.0681490711308741" y1="0.03125" x2="0.9537210324437329" y2="1.0531201035746074" gradientTransform="matrix(176.005396,0,0,224,39.997303,16.5)" gradientUnits="userSpaceOnUse"><stop offset="0%" stop-opacity="0.58823532" style="stop-color:rgb(0,0,0)"/><stop offset="88%" stop-opacity="0" style="stop-color:rgb(0,0,0)"/><stop offset="100%" stop-opacity="1" style="stop-color:rgb(0,0,0)"/></linearGradient><path d=" M 78.924315 16.5 C 43.627592 16.5 39.82971 20.125416 40.002699 55.493531 L 40.002699 128.5 L 40.002699 201.50647 C 39.82971 236.874573 43.627592 240.500001 78.924315 240.500001 L 177.081083 240.500001 C 212.377806 240.500001 216.002699 236.875001 216.002699 201.50647 L 216.002699 128.5 L 216.002699 55.493531 C 216.002699 20.124997 212.377806 16.5 177.081083 16.5 L 78.924315 16.5 Z " id="blur" fill="url(#_lgradient_225)"/></g><path d=" M 78.924321 15.500025 C 43.627596 15.500025 39.829708 19.125398 40.002695 54.49353 L 40.002695 127.500014 L 40.002695 200.506441 C 39.829708 235.874573 43.627596 239.500004 78.924321 239.500004 L 177.081083 239.500004 C 212.377805 239.500004 216.002702 235.875035 216.002702 200.506441 L 216.002702 127.500014 L 216.002702 54.49353 C 216.002702 19.124994 212.377805 15.500025 177.081083 15.500025 L 78.924321 15.500025 Z " id="shape" fill="rgb(77,77,77)"/><g opacity="0.6"><path d=" M 78.924573 15.500025 C 43.627848 15.500025 39.829708 19.126032 40.002695 54.494165 L 40.002695 56.494138 C 39.829708 21.126005 43.627848 17.499998 78.924573 17.499998 L 177.080824 17.499998 C 212.377545 17.499998 216.002702 21.125601 216.002702 56.494138 L 216.002702 54.494165 C 216.002702 19.125571 212.377545 15.500025 177.080824 15.500025 L 78.924573 15.500025 Z " id="highlight" fill="rgb(255,255,255)"/></g><g opacity="0.1"><path d=" M 128.002691 15.500025 L 128.002691 239.500004 L 177.080824 239.500004 C 212.377531 239.500004 215.084421 235.863501 216.002702 200.506787 L 216.002702 127.500014 L 216.002702 54.493184 C 216.002702 19.124648 212.377531 15.500025 177.080824 15.500025 L 128.002691 15.500025 Z " id="right highlight" fill="rgb(255,255,255)"/></g><g opacity="0.2"><path d=" M 156.002703 239.500004 L 216.002702 179.500005 L 216.002702 201.983857 C 215.950394 235.97965 212.200019 239.500004 177.828601 239.500004 L 156.002703 239.500004 Z " id="clip" fill="rgb(255,255,255)"/></g></g><path d=" M 74 182 C 74.037388 144.054622 74.099693 114.038923 74 74 L 165.592305 74 C 171.415999 79.566154 176.683082 85.634926 182 91.674612 L 182 182 M 165.384615 128 L 90.615385 128 L 90.615385 177.846154 L 127.804766 177.846154 L 165.39707 177.846154 M 152.935532 78.153846 L 103.089386 78.153846 L 103.089386 111.384615 L 152.935532 111.384615 L 152.935532 78.153846 Z  M 128.012455 82.307692 L 144.627839 82.307692 L 144.627839 107.230769 L 128.012455 107.230769 L 128.012455 82.307692 Z " id="disk" fill="rgb(255,255,255)"/></g><foreignObject requiredExtensions="http://ns.gravit.io/"><gravitDesigner:gravitElementRef xmlns:gravitDesigner="http://ns.gravit.io/" xlink:href="#djHgDjvqLOLDR8dHvznZv4mYf1MWon9R"/></foreignObject></switch><gravitDesigner:gravitGraphicSource xmlns:gravitDesigner="http://ns.gravit.io/" id="djHgDjvqLOLDR8dHvznZv4mYf1MWon9R" version="1"><![CDATA[eMKcw41aw7nCk8OiVsKSw75XNsOww4bDvsKyw63CtsOuw4MREzHCksOQLSEEAiTCuRwbwrpvdAshwofDv8O3FTRUFcOlw67CnsOqGcOPwrjCi8KCwoLCp8KXwqnDjHzDuX0vw7MVwr8tw77CvsO4eVE5UcKww7jCsMO4w6/DhcOPwr/DvHYdwojCmsKywq8eRirCp8KLw6cBLy/Dm8OAX8O8w5w1fcOwYVF1w608w6HClwXDrGjCucK+wqlEZ8Knw75twp7DtMODw7wkwqAdw6UJw5TDlHnDrEYRw5cqbHnCvMKZJEJiw6xpw6HCoMKEw7MUYX7Chn4LPkvDvsO6w6HClwUrwqrChcK+w5NsD3hWFWXDu3ZCBsKDwpt8dcOPAAXCvcONw5J4w5LDjcKzCMKrwq7CozXDs8KUwotpOcOhw6XCusKTwpFOw7Zaw5UGBcKjF1XCu3FzwqjDusKSC3JkRMO2PcKUwo9wC8KYwp0bOcO7wo5QOcO8RcOOLsO9w7TDhRvDhsKgIzjDmMKnw4rCkcOPa2NgC8KeQzhjwrTCqsOQw7HCoMOTw57CvXlzNcOhECrDmcOdwptrYMK2JMKfZcOPwqo6IMKkw7vDgQ7Cq8O+w6gywq3Cu8OqEiU/MgfCosOEw4jDiF/Cm8OJw43Cm2tgw67CkldVwrjCisOpw4nCgyrCqsOYHcKTOsKtw7slw5kAwo4odBtiwottHV/DlMKWwqnDq8Obw53DjSo8QsKjZ8OJwosqZsO2RMKvHhx0exosGmbDpU5EwrLDn0kwwp9Nwo5pZMKncsKvwqnCtMKGwpk3wqvCrsKSw4XDsMOiw6B1IH7CiDEeNcKCb0/CnTrCiHN8KWJHw4DClWzDi8OVwqZnUXfDk8O7L3LDmcODMhMUwpfCgnsOw4A9JSpVdMODT8KAwpo0FcKeD3HDr8OEMnvDs8OmKlnCiy/Di3wNTMO8wpB8w4vDnEEVLMKEfMOQQMKDwr3CoVjDo8KxFAJQanvCicKzw5zCisK4eXMNw4xdw7LDl18/LMKaIMOsw4Zuw7HDs8Kxw4/Ds8OrJ8Onw6jDhWVzScOyw7lqw5fChMOzG8O4I8KOwpMowoQjGAbCoAgJI8OoB2B+fG7DuCPChsKRIAYSAE7DoMOgw7zDuMOwI8KBYR9BEsKBMQzCgjAYJMOxWcOtw5EpwoIbw4BAEMKDZ8K7w77Cr8Otw4pqw7Ezw7ARwprDn8Onw445wrhYcMKHYXLDrMKUT0PCr8OhGSZ5wr5+wr52w5FRw41+LMKYH37CuRgHw7x6GRlmLcKhwpPCt8OBw68fPgnCuWXDowfDjcKjwph7WsO8DH8kwq8/OMOww6kHw4cuF3LDryLDknfDnXVawpEvfkbDvnjCm8OfZ8KHw75nHsOxWMKRw6rDrcOtMcOCJsKywo5ZZwfDjMOhwq/DmwQ7bsKCw7XCkFjCi8OfZ8OZIAzDhcKZSxYbw5lQA8KbbA7DmyYaeQZ1fF0mRjrCsgfDqgx6K2BxN8O4w6skw5R5wqR+wqLCqMKcFcOveSDDt8K0w5tBw6XCiMKSVcKzPCsVBcKXwqZaElnDqxoiTBjDpS3CpVDDocKnXsKPbsKSwpfClMKiwqhlwqQ3S8KCe8OJTmPCt8KGKh4Zw6xcaE/CjsKmwq/Dj0XCjCfCgsKGw7MMw4EdesOowpZSMMKLwod6AVFlw7Zaw5VFw7dLdgptw5huwqzDqcKww48HTcKYcHrClynCq8OUw50AZD52w6LCpiZfw6TDqsKIwoZfw6A+WMKgBXVbwqLCgAzDk8Oda8Kyw5rCocKNP0Qoez7DqHpMSjdvwq4mDMOyQMKxw7oNIMOXw4AwFMKVw6l3VcKmSytlwqvCi8Ozw73CkMORFMOFw7MZHQdmw6IVwpLDlVjDgcOew5/CvMO5FMKYwpvDpMKVGjcGw71Gw5XClMKeV8O+wpnDs8OXwowSUcKgwp9MK0HDqXYlLcOowqnCjAQ2f8KzworChsKWw5nCs8Okw43DgVLDhx4cbMKXw6fCvQfDkkZ0w5Y8w57DrcOIw5oyVRzCpWsvwoUtw7XCnMOfwqkRwqfCjcKjDhfDvcKzwoNXVcKnwocYwpfCk8OKLQc4H3Y1wqDCtgNfwrJLMsKAwowhw6R7cS3CrcKnFznDvGHCmcKLwoNpLsKtIiPCsR7DmcOnwph5wpYGwoXCgcOrHWY4YsKQL8ONwps3V8OJwp/DiMKfwp7Cl8O5U2AewpLDjx3DmmzClMKTFR4ESRbCqXkUwpZHfTPDtcOjwrJnSMOaM27DnnwKw4w9w7nDnklCw4BHw7TChk0AwrrCsA7Cil1Jw6gzw4M/woLDqMKMZhwGQADDgkAIIkDDuMODwo8Qw7ARwrkiHMKDERDCncK5CnnDocKhNnbDvMOyw7TCmsKFw4A/wo/ChcO+EcOzwoAfw6/DtgMoCcKgKAjCvcKbeR4Iw67DhkLCmy7DlDnDlsOJw6LCo8KwccOSwqMWwoQcw6rCuMO8wrAPDAl2wo7DsMKdwoXDrn7DjW8Dwq97w7TDicONw7vChsK9wo7Dj8ODw418w6vCjyTCjGMwTF5IHcODw4HDu8K9w5RCw6RrPjfChXjCpcKCfStKRcKbwq09JVl7w7E6w6JLacOxw7s/w4tiwonCvkTCl8K8N0zCljhqwqIiwqpuw6PDgkXDpMK3fG7DmMOmcEfDmHtYw6zCoMKcwq0twp4iwolUQcK5w4wpS8OBw4V1RTwBIMKUw4VcU38Dwospw7IyJsKswp1Nwq7CucKKw5ltw7tuCcKdwoJqO8KIIcOhwqdRX3zCicOFQMKqUcOxGMOeKwlHOmISDMKlw6fDryQrcsOyKnUjw6FeSsK9wofDhURAwpDDtDXCqcKKO8OjeEjCj8K6BGjCm3MXO8KDwrUfC8KhwrgXwobDr2ExwrVPAMKiw7dYw4/DgCHCkjzDg8O7bCwgaMKpRwFbw4pMwr3DugYWE8OBw57Dh8Oyw6Bkw4dWOMKFLcKmesKGTMOLwpbDkioEw4vDkMOpeMKzw6oTaTHCp8KvwrEYw6rDtX3Ch8Oaw5LCicKLw43DlWlsFBjDtMKtYwfDlsKrwpFNB1/DuhLCi8OpZ1TDohoLw7dswqrCg8OxVcKaQMKyThzCiRzDggomw5IRw6gbWEw8Z8OpNHpVecO2w4LCjMO1cQc/worDoMKaBMKzOsOnZC/Cv8Ove8OfG8KLXVDDu8Kaw4PDoHdzw5jCv8Kbwpo+fMKVKsKVH357WsK0T8KXw5shCAoiEMKKwpIIShAAQXx4WsKEw6N8w6VHw6AjwoARIEICOAjDggDCgSPDoMOlw5LDucOpw6InAMKDEDp/wrxMw7xlVlVdRsOnw4/DnsO8w7fDqcOFwqTCp8OFPFZeJWbDpRDCjMOCw5Bsw5htw7rDh8Orwr3CvijDsTwRw7zDisKsCy0+LcKawovCucOowrxKw7jChSwRGCcgECZ+f8KuEsObUifCtmVuIsOwUcKWw5xYX8KaaWAKwrLDn0vCjcKkw6/DvcOjP8ODw48gw7kRRwEURsOnGMKRGMKEIsOYw71uwrbDni7DjcOWwqdSw5vDkzHCkMOBNsOdWcKaBF8yRQUIwqxmw7dewobDvmPCs8ObOARRw6U+wopYSWTDhTTCv8KJw47Dq8KQWg3Ch3zCkHcddMKvGsOew5PDrMOKXX4Gw4/DtMKWP8KSwqLCtFHCtgfCqMKVwrLCkFzCq8KTw4PDlcOeQC/DnsOfw6zCnsORwpk6woTCmjZRCT9PNVwMw5bCqMKOY8OhQ8OJwpLClzHDsEvDjW5Vwq5SVDo2wofCmBg0B8OlEVfDomlKw5TDi3XDnzpzw5nCunh/wrNbDcKhfhLDm2gtw7hIOcKuRsKwIHvCqMKjw5HCpcK4woXDlW5CFsOvb3bCocKOCsOjw6DCsMKaGCskdidaIgbDmcKZH8KZwqTCqMOcw6kAL8Oew5/DrCoew6IzY8KvwofChsKYwpHCoMK7aw/DrcKyJ8O9YGfCqmAiO8Ogw6LDvcONwq4NwpsiwqXDm8KiahbDsRHCkcO1EynCtsOxUkpPW2tfwqrClcO8wqVmN1fDrcKTw6VJwpxjw4Jew6jDtQZrw7rCgcOtS8OYAMOYw4zCqlXDhsOFw7vCm13DjhHDkMOSSsOHUMKEI8OHwrEVwrHDiBLCo8KjJMKkw6TCtDUEw4XCi8OvwrDDmcKdwovDjMOqcsOiw7Qvw5fClTjDvsOhw7rDu8OSeVZHCD/ChsOtSWlsBxnDtxrCi8KVwpBZUxnDgTV2wrrCocObwofDjsKzwoDCuCzDocOaw4YDBsKOQlULHRgEQHA/PsKacsKnwrfDhsO7OsOPK8KGwoLCvcKYwrzCrC8mK8O7wp3DrcK4UcOHwq/DgiHCqcOiwpg4w4BRwr7DhzLDjBbCkMKUw70Sw7YMXHHDsX7DiSPCljnDpDglccO1dsK3d8OXworCvmbDj24Aw5LDn8KAPXvDm23Cl8KKORg+UBQCwqzDlcO6VjXDj8Opw6rCgMKzwrnCiQ7DtTdgwo8LBsKkMHowFSTCmm/DuMKzRkHCicOBKcKgwpLCqcK7aQjCp2/DgMKewp/CnA8CS0Elwr1OG8OWEgxow5XDrnzCmg/CpnLCqQjDgMO2wqvDmMOrH2I8w5AFbcOKwpE9VzYUCcOKVB/ClHsywqVBw4/CosOBwrUdw5J/XcKWD8OJfcK7f8OOw7jDjsKJFn/DssOJw45cG3zCuD3Dv8OSw7TCp8Okw63Dmw3CsRTDsHRMe8KOw5HDlnJmQwgMFg7CvVXDllPDr8KER8O6eD94OcKRwp/DnRDCscOXTEkeYExjOyoIw5XClSAvUxtdMcOHwqLClhlJw4c5wrzCvMKXw5NXRMK4w7rCmw3DkcObRT7Du8KsKjlzwqZmwo8iwpnDhwRgTmzDoRLDizXDpsKuTxspBgdJeA3CrsOtw4A9wqvCujpoC8OrVw7CmhvCtkNHwqHDoMOKwpQVW8KubA/CvcOJwqkpYwYZw5XClMOtPcKNwq8Ow54lL8KqJncGV8O1wqDCisKew5w8dkFNFcKUwqHCrhzCrDHDicKjUMOYIn3DgA1XRXfDt8KGwojCmsOBVcK9UnVFRMO7w6BgTGDCrMOGwok1KUDCihFlclZ0wq3CisO0w7HCmj7CrgDCnS1fwoNrBsKww7PCgMOTw6whw6wiZ8OzTMOJQ3IiZMO2CsKXw6TCkcKiKsKHP2jDoTbCmFtnw6RhwoM6wr3ChMO9w6rDoMOjBsOlZcOawpnCrQvDiWDDqBHCn0ATYQEkNMOOPsKqw67DjmgKaTfCq8KuDn4vG1TCnERxPj/Cu8OXwqDDhcO+dMOQw77Cg8OjEMOgdhBLQsKfOiLCkMO8wpfCjkNiAxHCljJ3w7IIwqXCkVIuw47DjMKxw5vCsyrCv8OGYcKVSsK9w7jCgRvCusK2wpvCtx3CuXYAO8KpEcKSP1TDi2Q6wpjDgsORwoLDj8KSwp3Di8Ovw6MGwrQVw7k3w6kAU8KpOMOxwofDshTDqcOacm9Uw7xJw4dUdVPCnE8oJQh9ek3Co8Krw5zDoyYkwp9gaMOcwp8lwqbCr1RBw6zDuSV3w4o8wrRGUMKMMsOzNRrCvsKkw5/CoxwAwrcSBTFcNmR6wrUKWWHDm8OLdhF0wojDn8OBTMKLw5zCuQg6fXbDswJeb14cw6jDkzEOZ8ONZhMKwrkXDCBxw4rDhgbDmRxzJmdCw7zClsOJw6t+TMO0KMO8asOhwrjCiyXCncOWM8OCXncQS8K1BsOgJMKYwqZDcsKawrJawq3CmMOxwotcCsK9w4ZlCcKRKcOjwrbCpHxoYsOjwrxmwqhyWMKqMwfDjFXDvsOZXTUPwoVjw7V1XMOOwqkQwrvCu8KQDsKENsObcTtNw54PbcKZcsKFwpArwoFqw5R3DsK7BsOme8OBZXPDgcOkf30Wwp1/w4Yxw6VfwonDjl3DmMKgw5tmwrnDoVUeFRB2woIJwoZaw4LDi3VBLcKdVcOIw7QPw6hsaFdCBDDCrMKdfMKlwqs6woHDlsOrcAUIwpwkwqQDwqstw4NvKFwfwpvDhsO6wqDDmUYAw5Qow4Y2KsKfwqTCssKzMhTCrsOOJWJMGMOUw5zCvCpcH8Kgw5FbG8K7IWnDii85wr3DnhjDvsOgwottw6HDmUvDjcK2eGVTcQ/ChWvDswLCjcOrw57DuljCuMOKwqQEHGJtw4VzfQLDksKsw6TCq3IWwo7CjVvCnzbDm8KVZMOcW8OgccO1wqZww70Mw7bDl8OFThAow4/DmSjCq8KOF8OWw4YSKMKTMmoiw4hjw5bCqcOLG8OfwoB9bcKvw67CllEpwp3CsMONwrwxJiFQwrLDqcKYw7fCjcKfFsKadsOawq7CvgHDu8KowqRjI8Kyw5TClMOlwpEFw4MzZMOkfgPClsKAw6lpwqrCpMOvV8Obw6/CqnB1w4vCrivCi8OPQ8Ouw4/Cr2LDv8KzwpBjTkd1W8KSSMOnJ1DCuF1iblFtS8OcZ1bCtcOqTwoGPUAOPURcEMOKwoDCpMOMwpUtw4DClWJPwp8dwrrDlMKnw4R3w6vDgMOUw54HOcOmwrDDi8OeJMOpGcKEYhvDpsKmdcOKw6HDp3bCrzYSdcKGG8KFRl3CjcKpG8KXe0nCo8KEPCQvcnkpJsKHDcK1w4V4wobCshk2LnbCp0MlwonDmWrDtEgUw4PCohfCuXrCtX59wr4TwoIQEMKtwowIHgkmw7VEw74ww7JiacOmPSPCu8O8wrDDisOuBcKnb8Knw7rDoGrDj8KZbB8Rw7zCjcOpwptJwqvDhcK0WcKbw4HCmcK2RsKXXwXDg8Oow6vChMOow7VOwpASQcO7XAbCo8OhC8K+w77Doi3DhMOLwpPDqi9NYsO8wpbDhMOIwqfDk2QQw73Cl3LCuMKoC8KgwoTDpcO9wqHDlwfDnQrCk8KDR0Uswr7CnEvCuylfw7FKw7DCkMODMh7CpMOOw6AlwpvDmMObIMOoClQRUj5zdsK9DcKawo7DosKtw6bDmkbDvnvDg8OvVFXCnnhOwpfClMOHH8KLZMKuw4PDjsKfTsKCw64mw4bDgMOIGTvCkF/DisKUI0oUw4/ClsKKVsKyQcOUw4bCg8Oow5RWw7wcXsKvLMKqwrI/w7o3wrgFQ3AsfcO/wpnCvi7Dg8KXfFrDvMO2wrTDuMO7w7XClMO6MnI9wqDCnsKxeDkew7/DpWlBUcKMwqXDqxTCtWHDhcK/XS/DvXB9w63CtsKrDiEkwr53K8KkOMKxwoPCrlfCgcKLw7PDkx45OAcVw7HCr8KTwoTDq8KrO8OKwpbDrsKtQAHCuGjCmGHDssKiwrRnw5nDl0rDgw7Dp8KXG8Kcc8K6w43CkVLDnQ7CgGpcCExGVSlpDMO6w6Y6w6nCk8KBw5LDhFvDusOew5HCqMOsWcKpOsKpw5nDpT9wb8KUUnDCuy4he0Mfw5deQMKNQMKcMTtVHMKBw50hw6lyVXptKcOkIcKVwp7Di8OIKWNfLMKlAD0FZCh7UMKqw6HDmgFkw7rCsxkIwpkrwq8Jw53DisKackXDkMObwqzCn0IqwoFeWcK6w5XDmF4/wq7DisOpwo3DksOoDzEFATDCk8K5wo7DqjLCgDkwwqE4SHnDisO3wpvCrUbDhWYqeMOiw5PChRjCnm7DjMOwdMKjwobCp1fDnMOwdCXCh8KnS3pew54iH0EUJhDDrMO5w7XCmsKefxzDvRHDuUhCMMKAY8K3w5fDq3/CjsOAwo8PwrMgw6jCosO4w4ICwqJ/TcKVw55xCsOrwqAIw4NBw5jDhcOTwoEObMOZdSTCqsObw4HDtWHDnWnCq8KrR8KfUsO2Oj8bwo7DiXHCtWbCmVbCrsO2wpLClR7CgMKJK0bDlQBZcxVOwrvDoGnDscO7wpzCol/Dj0TDqsK6wr7DrGPDlMOiSl81w6pgDsONwpTCtnvCg8OcwqIxwqAVK8KEMhTCvcOow4XDlUvDiiHCl8KUeyNtw5ZWw4MZw6MOccKZwrZNw4wCM3lcUzTChjHCusOaKwHDuMKNwrTDvijCjcOvFCXDmnLDq10GRHhqV8OKRC4NT8OcOC7DkMOlw5vCg3bCkx7CqsKffsO6wozCtMKkR8OYOsOIwrHCsm8dPcOxw60AwpwsZsK5WVLCh8KxRCQzwr5JwrPDkcKnwrx+I33DtMKmRsOcw4nDicOSwrHCrMK0w6YpwofCr8KqwphPQCAGwrc2ZWzCv8KrbCnDjMOKwobDhDVLCsOOwqA5KcKpwpwTCB0owo0oN8KUKRbDqcObbMKBecOZwqrCtBpAVjRLHSFew6sUw5UawovCtsO1DztPGMOHL2XDi8KnworDosOpVlLCvMOOwp45worDliXCisKnR3Y4wpEhBsOsYwZMw5jCqMOTUSXDosO5w7PDksObT8KuRVopwovCjsK3NcKQdFfCv8Ksw6BbaS1Cw7bCgQPCtsK7w5jDnsKzNWHDglXDncOwNRtnDgHDucKOw7BGwpp6XEHCnnbDucKANsOrworChGI+w5UzV0w6RCpPw5TCsMK1ccOMwrJfw5bDv2rDuRvDqcONWcOve15ZIcK7SU7CsVpEYMKBSVduwrAvwoIIP03DtHfCtcO+SMORD8Kib201w5TCm8OCwq3CtSHCkcKcLQrCuWfDh3w5w4bChsO1dsO9w6kdd8KIwofCoEvCqMKtVMKyw73CvsOswr3DscOQQCtFwofDu2ErV8O/w5TDulPClyjCnh9XUMOIOcO/wpgfCMKrwqNowoNrKDPCksKQTWwfw5Vwwr0eUHDDtcKyBsO6Z8KkW8Kiw6wmC2TCs8KAD8KtDTQnwpJcH8KBBsOcYMOWwq7DhcO0w7jCjcO0w78+SsODcxFyKMK0OBJ5JjPCt8OCScKWw4Yhw5LDhcOzw47DtzdnwrN+wpHCpj4jXTIZw6MgIglWKsKxw6JBOcOpBsOuDMOHw6Y6w6PDjwUDT8Ofw5XDuhMEf8OWZD/Dn0JFwodDw71Jw4TCmsOdGsKmdFHCicOPw6XChiXDnsKuwr/DpGLCu8OIw695wpl3aMKLw4HCpy3DrW1bambDizPDjsO7wqlRX8OWw7/Dly/ClcOFf8K2J8O3wrrDjE/DmkvDpcO/HyzChcO/w6nCkjfDr0ZXGMOwFhRCwqQJKFVyN2B7wrJ3a8OkwoDCukLCmD/ClMK8AMKxw4VNWsKETsObKDvCmMOlMA7DuCTDrcKCLUISVAlbw7jCtcOkw73DocOywp13wrTDo8O8w61gwppQF8OtwpDDiWbCunVnc8OgDsO2RmN/wq4vX8KJwpvCi3cIw4UuPcONwqfCv8Olw6XCqwnCl8KlccK9w6wzw57Dj8Ojw5cWw6M5w4ZrJwrDvgtcw7zDvsO/LSfDgsOY]]></gravitDesigner:gravitGraphicSource></svg>

<svg xmlns="http://www.w3.org/2000/svg" xmlns:xlink="http://www.w3.org/1999/xlink" style="isolation:isolate" width="256" height="256"><switch><g><path d="M78.924 15.5c-35.296 0-39.094 3.625-38.921 38.994v146.012c-.173 35.369 3.625 38.994 38.921 38.994h98.157c35.297 0 38.922-3.625 38.922-38.994V54.494c0-35.369-3.625-38.994-38.922-38.994H78.924z" fill="none" vector-effect="non-scaling-stroke" stroke-width="4" stroke="#000" opacity=".2"/><defs><filter id="a" x="-200%" y="-200%" width="400%" height="400%" filterUnits="objectBoundingBox" color-interpolation-filters="sRGB"><feGaussianBlur xmlns="http://www.w3.org/2000/svg" stdDeviation="2.12"/></filter></defs><path d="M78.924 16.5c-35.296 0-39.094 3.625-38.921 38.994v146.012c-.173 35.369 3.625 38.994 38.921 38.994h98.157c35.297 0 38.003-3.637 38.922-38.994V55.494c0-35.369-3.625-38.994-38.922-38.994H78.924z" opacity=".1" filter="url(#a)"/><defs><filter id="b" x="-200%" y="-200%" width="400%" height="400%" filterUnits="objectBoundingBox" color-interpolation-filters="sRGB"><feGaussianBlur xmlns="http://www.w3.org/2000/svg" stdDeviation="8.48"/></filter></defs><g opacity=".3" filter="url(#b)"><linearGradient id="c" x1="-.068" y1=".031" x2=".954" y2="1.053" gradientTransform="matrix(176.0054 0 0 224 39.997 16.5)" gradientUnits="userSpaceOnUse"><stop offset="0%" stop-opacity=".588"/><stop offset="88%" stop-opacity="0"/><stop offset="100%"/></linearGradient><path d="M78.924 16.5c-35.296 0-39.094 3.625-38.921 38.994v146.012c-.173 35.369 3.625 38.994 38.921 38.994h98.157c35.297 0 38.922-3.625 38.922-38.994V55.494c0-35.369-3.625-38.994-38.922-38.994H78.924z" fill="url(#c)"/></g><path d="M78.924 15.5c-35.296 0-39.094 3.625-38.921 38.994v146.012c-.173 35.369 3.625 38.994 38.921 38.994h98.157c35.297 0 38.922-3.625 38.922-38.994V54.494c0-35.369-3.625-38.994-38.922-38.994H78.924z" fill="#4D4D4D"/><path d="M78.925 15.5c-35.297 0-39.095 3.626-38.922 38.994v2C39.83 21.126 43.628 17.5 78.925 17.5h98.156c35.297 0 38.922 3.626 38.922 38.994v-2c0-35.368-3.625-38.994-38.922-38.994H78.925z" fill="#FFF" opacity=".6"/><path d="M128.003 15.5v224h49.078c35.297 0 38.003-3.636 38.922-38.993V54.493c0-35.368-3.625-38.993-38.922-38.993h-49.078z" fill="#FFF" opacity=".1"/><path d="M156.003 239.5l60-60v22.484c-.053 33.996-3.803 37.516-38.174 37.516h-21.826z" fill="#FFF" opacity=".2"/><path d="M74 182c.037-37.945.1-67.961 0-108h91.592c5.824 5.566 11.091 11.635 16.408 17.675V182m-16.615-54h-74.77v49.846h74.782m-12.461-99.692h-49.847v33.23h49.847v-33.23zm-24.924 4.154h16.616v24.923h-16.616V82.308z" fill="#FFF"/></g><foreignObject requiredExtensions="http://ns.gravit.io/"> </foreignObject></switch> </svg>
